X:1
T:Title
%%score { ( 1 3 ) | ( 2 4 ) }
L:1/8
M:6/8
K:Bb
V:1 treble nm="Grand Piano"
V:3 treble 
V:2 bass 
V:4 bass 
V:1
 z3 z2[Q:1/4=81] [B,D]/[CE]/ | [DF][DG][DA] [DB][Dc][DB] | d3 d2 [Fd]/[^Fc]/ | %3
 [GB][^FA][GB] [Gc][GB][EG] | [DF]3- [DF]2 [DF]/[DF]/ | FCD EFG | [DF]3 [DB]2 [DFB]/[DFB]/ | %7
 [CFA][=B,F_A][CF=A] [=EB][FA][EG] |[M:5/8] F-F- F3 |[M:1/8] D/[CE]/ | %10
[M:3/4] [DF][DG] [DA][DB] [Dc][DB] |[M:5/8] [Fd]-[Fd]- [Fd]3 |[M:1/8] [Fd]/[^Fc]/ | %13
[M:3/4] [GB][^FA] [GB][Gc] [GB][EG] | [DF]6 |[M:5/8] [B,FB][B,FB]c d2 |[M:1/8] B/B/ | %17
[M:7/8] [Gc][Gc][Gd] [Ge]3 [Gd]/[Gc]/ | %18
[M:3/4] [Bf][FBd] [DFB][GAe] [FAd][EAc][Q:1/4=78][Q:1/4=76][Q:1/4=73][Q:1/4=71][Q:1/4=68][Q:1/4=66][Q:1/4=63] | %19
[M:5/8] B-[GB-][EB-] [FB]2 |] %20
V:2
 z3 z2 [B,,F,]/[B,,F,]/ | [B,,B,][B,,B,][B,,B,] [B,,B,][B,,B,][B,,B,] | %2
 [B,F]3 [B,F]2[K:bass] [B,,B,]/[D,B,]/ | [E,B,][E,B,][E,B,] [E,E][E,E][E,B,] | %4
 [B,,B,]3- [B,,B,]2 [B,,B,]/[B,,B,]/ | [F,A,C][F,A,][F,B,] [F,A,C][F,A,E][F,A,E] | %6
 [B,,B,]3 [B,,B,]2 B,,/B,,/ | C,C,C, [C,G,][C,C][C,B,] |[M:5/8] [F,A,]-[F,A,]- [F,A,]3 | %9
[M:1/8] [B,,F,B,]/[B,,F,]/ |[M:3/4] [B,,B,][B,,B,] [B,,B,][B,,B,] [B,,B,][B,,B,] | %11
[M:5/8] B,D,F, B,2 |[M:1/8] [B,,B,]/[D,B,]/ |[M:3/4] [E,B,][E,B,] [E,B,][E,E] [E,E][E,B,] | %14
 [B,,B,]D, F, B,,2 B,,/B,,/ |[M:5/8] D,D,[K:treble][F,A,F] [B,F]2 |[M:1/8] [B,D_A]/[B,DA]/ | %17
[M:7/8][K:bass] [E,C][E,C][D,=B,] [C,C]3 [D,B,]/[E,C]/ |[M:3/4] [F,D]F, F,F, F,F, | %19
[M:5/8] z EC D2 |] %20
V:3
 x6 | x6 | x6 | x6 | x6 | x6 | x6 | x6 |[M:5/8] z z2 E2 |[M:1/8] x |[M:3/4] x6 |[M:5/8] z B,B, z2 | %12
[M:1/8] x |[M:3/4] x6 | z B, B, B,2 [B,DF]/[B,DF]/ |[M:5/8] x5 |[M:1/8] x |[M:7/8] x7 |[M:3/4] x6 | %19
[M:5/8] [DF] z z z2 |] %20
V:4
 x6 | x6 | x5[K:bass] x | x6 | x6 | x6 | x6 | x6 |[M:5/8] x5 |[M:1/8] x |[M:3/4] x6 |[M:5/8] x5 | %12
[M:1/8] x |[M:3/4] x6 | x6 |[M:5/8] x2[K:treble] x3 |[M:1/8] x |[M:7/8][K:bass] x7 |[M:3/4] x6 | %19
[M:5/8] B,,-B,,- B,,3 |] %20

